X:1
T: Maguire's Kick
C:
R:Jig
Q:180
K:D
M:6/8
L:1/16
|:dA|F4E2 E2D2F2|F4D2 D2C2D2|F4E2 E2F2A2|d4e2 f2d2A2|F4E2 E2D2E2|F4D2 D2C2D2|F4E2 E2D2E2|B6d4:|
|:A2|A2B2d2 e4f2|d4B2 A4F2|A2B2d2 e4f2|d6B4A2|A2B2d2 e2d2e2|f2d2B2 B2A2F2|A2F2E2 E2F2A2|d6d4:|
|:A2|F4E2 E2D2E2|F4D2 D2C2D2|F4E2 E2F2A2|d4e2 f2d2B2|F4E2 E2D2E2|F4D2 D4F2|A2F2D2 D2F2A2|B6d4:|
